X:2
T:Dream A Little Dream Of Me
C:Fabian Andre & Wilbur Schwandt
L:1/4
M:C
I:linebreak $
K:G
"G" z G"Em" F/G/F/E/ |"Am" G2"D7" F2 |"G" z G"Em" F/G/F/E/ |"E7" (3^G B ^G =F E |$
"Am" z A G/A/G/E/ |"Aø" (3A G _E G2 |"G" D/E/G/A/"Am" _B"D7" A |"G""_Fine" G4 :|$
[K:E]"E" z e"C#m" (3c e c |"F#m" B/G/B/G/"B7" z F |"E" z e"C#m" (3c e c |"F#m" B2"B7" z2 |$
"E" z e"C#m" (3c e c |"F#m" B/G/B/G/"B7" z F |"E" z e B G |"Eb7" d2"D7""_D.C. al Fine" =d2 ||

